outputs/icons/device/network_signal_round.svg

<svg xmlns="http://www.w3.org/2000/svg" width="1200" height="1200" fill="none"><g clip-path="url(#a)"><path fill="#000" d="M926.48 1150 647.87 446.129c-17.185-43.463-78.695-43.463-95.905 0L273.354 1150zm-103.985-68.75H487.726L767.6 941.3zm-222.58-567.555 130.24 332.11-198.28-158.62zm-94.315 240.5L691.185 902.65l-303.276 151.635zm516.88 36.63c-17.67 21.215-49.525 21.09-69.055 1.57l-2.14-2.135c-19.535-19.525-19.285-51.04-2.06-72.625a446.8 446.8 0 0 0 63.555-107.71 446.85 446.85 0 0 0-63.575-449.76c-17.22-21.58-17.475-53.074 2.04-72.603l2.18-2.182c19.525-19.537 51.395-19.673 69.07 1.554a550 550 0 0 1 127.34 351.933c0 129.113-45.4 253.543-127.355 351.958M250.613 717.63c17.222 21.59 17.471 53.105-2.065 72.63l-2.139 2.135c-19.53 19.52-51.385 19.645-69.054-1.57C95.398 692.41 50 567.98 50 438.867 50 309.76 95.395 185.332 177.346 86.922c17.672-21.221 49.535-21.09 69.063-1.563l2.203 2.203c19.527 19.527 19.273 51.029 2.049 72.614a446.88 446.88 0 0 0-63.566 449.749 447.1 447.1 0 0 0 63.518 107.705M801.52 307.516c-15.08-23.134-15.615-54.593 3.91-74.119l2.205-2.207c19.53-19.525 51.53-19.707 68.02 2.442a343.6 343.6 0 0 1 41.855 73.726 343.7 343.7 0 0 1 26.17 131.552c0 45.143-8.89 89.845-26.17 131.55a343.6 343.6 0 0 1-41.855 73.73c-16.49 22.15-48.49 21.965-68.02 2.44l-2.205-2.205c-19.525-19.53-18.99-50.985-3.91-74.12A240.8 240.8 0 0 0 822.24 531a240.6 240.6 0 0 0 0-184.179 240.7 240.7 0 0 0-20.72-39.305M256.167 438.867a342.76 342.76 0 0 1 68.011-205.312c16.496-22.116 48.469-21.915 67.978-2.405l2.248 2.247c19.527 19.526 18.991 50.985 3.912 74.12a240.631 240.631 0 0 0-39.042 131.393 240.63 240.63 0 0 0 39.042 131.395c15.079 23.135 15.615 54.59-3.912 74.12l-2.248 2.245c-19.509 19.51-51.482 19.71-67.978-2.405a342.76 342.76 0 0 1-68.011-205.398"/></g><defs><clipPath id="a"><path fill="#fff" d="M0 0h1200v1200H0z"/></clipPath></defs></svg>

<svg width="1200" height="1200" viewBox="0 0 1200 1200" fill="none" xmlns="http://www.w3.org/2000/svg"><g clip-path="url(#clip0_833_1867)"><path d="M926.48 1150L647.87 446.129C630.685 402.666 569.175 402.666 551.965 446.129L273.354 1150H926.48ZM822.495 1081.25H487.726L767.6 941.3L822.495 1081.25ZM599.915 513.695L730.155 845.805L531.875 687.185L599.915 513.695ZM505.6 754.195L691.185 902.65L387.909 1054.285L505.6 754.195ZM1022.48 790.825C1004.81 812.04 972.955 811.915 953.425 792.395L951.285 790.26C931.75 770.735 932 739.22 949.225 717.635C975.305 684.95 996.72 648.705 1012.78 609.925C1035.24 555.705 1046.8 497.596 1046.8 438.91C1046.8 380.225 1035.24 322.114 1012.78 267.896C996.715 229.106 975.295 192.852 949.205 160.165C931.985 138.585 931.73 107.091 951.245 87.562L953.425 85.38C972.95 65.843 1004.82 65.707 1022.495 86.934C1104.445 185.341 1149.835 309.764 1149.835 438.867C1149.835 567.98 1104.435 692.41 1022.48 790.825ZM250.613 717.63C267.835 739.22 268.084 770.735 248.548 790.26L246.409 792.395C226.879 811.915 195.024 812.04 177.355 790.825C95.398 692.41 50 567.98 50 438.867C50 309.76 95.395 185.332 177.346 86.922C195.018 65.701 226.881 65.832 246.409 85.359L248.612 87.562C268.139 107.089 267.885 138.591 250.661 160.176C224.579 192.861 203.16 229.111 187.095 267.896C164.637 322.114 153.077 380.225 153.077 438.91C153.077 497.596 164.637 555.705 187.095 609.925C203.158 648.705 224.549 684.95 250.613 717.63ZM801.52 307.516C786.44 284.382 785.905 252.923 805.43 233.397L807.635 231.19C827.165 211.665 859.165 211.483 875.655 233.632C892.56 256.336 906.63 281.091 917.51 307.358C934.79 349.065 943.68 393.767 943.68 438.91C943.68 484.053 934.79 528.755 917.51 570.46C906.63 596.73 892.56 621.485 875.655 644.19C859.165 666.34 827.165 666.155 807.635 646.63L805.43 644.425C785.905 624.895 786.44 593.44 801.52 570.305C809.605 557.9 816.545 544.745 822.24 531C834.335 501.805 840.56 470.512 840.56 438.91C840.56 407.309 834.335 376.017 822.24 346.821C816.545 333.075 809.605 319.921 801.52 307.516ZM256.167 438.867C256.117 393.724 264.985 349.016 282.262 307.309C293.151 281.024 307.243 256.258 324.178 233.555C340.674 211.439 372.647 211.64 392.156 231.15L394.404 233.397C413.931 252.923 413.395 284.382 398.316 307.517C390.23 319.921 383.288 333.075 377.594 346.821C365.5 376.017 359.274 407.309 359.274 438.91C359.274 470.512 365.5 501.805 377.594 531C383.288 544.745 390.23 557.9 398.316 570.305C413.395 593.44 413.931 624.895 394.404 644.425L392.156 646.67C372.647 666.18 340.674 666.38 324.178 644.265C307.235 621.55 293.136 596.77 282.245 570.47C264.969 528.75 256.106 484.025 256.167 438.867Z" fill="#1D1E23"/></g><defs><clipPath id="clip0_833_1867"><path width="24" fill="white" d="M0 0H1200V1200H0V0z"/></clipPath></defs></svg>
